X:1
T:Title
%%score { ( 1 3 ) | ( 2 4 ) }
L:1/8
M:3/4
K:F
V:1 treble nm="Grand Piano"
V:3 treble 
V:2 bass 
V:4 bass 
V:1
 z2 z2[Q:1/4=100] c2 | c3 =B dc | A[B,EG] [A,F]2 [CFc]2 | [DFB][CFA] [CG]2 [B,FG]2 | [CEG]4 [Ec]2 | %5
 c3 =B dc | A[B,EG] [A,F]2 [CFd]2 | [DFB][CFA] [CFG]2 [B,EG]2 |[M:2/4] [A,F]4 |[M:1/4] [CEG]2 | %10
[M:3/4] [CEG][G,CE] [CEG]2 [EGc]2 | =BA B2 c2 | d=B F2 A2 | [EG]4 [EG]2 | [EG][CE] [EG]2 [Ge]2 | %15
[M:7/8] [CAc][CFA] [CAc]3 [C_EA]2 |[M:3/4] [CEG][EGc] [DFc]2 [DF=B]2 |[M:5/8] c-c- c3 |[M:1/4] c2 | %19
[M:3/4] c3 =B dc | A[B,EG] [A,F]2 [CFc]2 | [DFB][CFA] [CG]2 [B,FG]2 | [CEG]4 [Ec]2 | c3 =B dc | %24
 A[B,EG] [A,F]2 [CFd]2 | [DFB][CFA] [CFG]2 [B,EG]2 |[M:6/4] .[A,F]6 z6 |] %27
V:2
 z2 z2 [F,A,F]2 | [F,A,F]3 [F,_A,F] [F,B,F][F,=A,F] | [F,DF]C, D,2 A,,2 | B,,F, E,2 D,2 | %4
 C,4 [C,B,]2 | [F,A,F]3 [F,_A,F] [F,B,F][F,=A,F] | [F,CF]C, D,2 A,,2 | B,,F, C,2 C,2 |[M:2/4] F,4 | %9
[M:1/4] C,2 |[M:3/4] C,C, C,2 C,2 | [G,DG][G,CG] [G,DF]2 [G,CE]2 | %12
 [G,=B,F][G,DF] [G,B,D]2 [G,B,F]2 | [C,C]4 [C,C]2 | [C,C][C,G,] [C,C]2 [C,C]2 | %15
[M:7/8] F,F, F,3 ^F,2 |[M:3/4] G,G, G,2 G,,2 |[M:5/8] G,A, B,3 |[M:1/4] [F,A,F]2 | %19
[M:3/4] [F,A,F]3 [F,_A,F] [F,B,F][F,=A,F] | [F,DF]C, D,2 A,,2 | B,,F, E,2 D,2 | C,4 [C,B,]2 | %23
 [F,A,F]3 [F,_A,F] [F,B,F][F,=A,F] | [F,CF]C, D,2 A,,2 | B,,F, C,2 C,2 |[M:6/4] .F,6 z6 |] %27
V:3
 x6 | x6 | x6 | x6 | x6 | x6 | x6 | x6 |[M:2/4] x4 |[M:1/4] x2 |[M:3/4] x6 | x6 | x6 | x6 | x6 | %15
[M:7/8] x7 |[M:3/4] x6 |[M:5/8] EF G3 |[M:1/4] x2 |[M:3/4] x6 | x6 | x6 | x6 | x6 | x6 | x6 | %26
[M:6/4] x12 |] %27
V:4
 x6 | x6 | x6 | x6 | x6 | x6 | x6 | x6 |[M:2/4] x4 |[M:1/4] x2 |[M:3/4] x6 | x6 | x6 | x6 | x6 | %15
[M:7/8] x7 |[M:3/4] x6 |[M:5/8] C,-C,- C,3 |[M:1/4] x2 |[M:3/4] x6 | x6 | x6 | x6 | x6 | x6 | x6 | %26
[M:6/4] x12 |] %27

